src/platform/plugins/shared/custom_integrations/public/assets/language_clients/java.svg

<svg width="131" height="128" viewBox="0 0 131 128" fill="none" xmlns="http://www.w3.org/2000/svg">
<path d="M48.896 98.2654C48.896 98.2654 44.117 101.06 52.2971 102.006C62.2071 103.143 67.2719 102.98 78.1928 100.901C78.1928 100.901 81.0639 102.712 85.0738 104.28C60.5921 114.832 29.667 103.669 48.896 98.2654Z" fill="#5382A1"/>
<path d="M45.9045 84.4955C45.9045 84.4955 40.5444 88.4858 48.7305 89.3373C59.3167 90.4356 67.6767 90.5255 82.1429 87.724C82.1429 87.724 84.1438 89.7641 87.29 90.8797C57.6903 99.5844 24.7215 91.5662 45.9045 84.4955Z" fill="#5382A1"/>
<path d="M71.1241 61.1371C77.1563 68.1217 69.5391 74.407 69.5391 74.407C69.5391 74.407 84.8561 66.4549 77.8217 56.497C71.2518 47.2107 66.2136 42.5967 93.4885 26.6881C93.4885 26.6881 50.6758 37.4416 71.1241 61.1371Z" fill="#E76F00"/>
<path d="M103.503 108.45C103.503 108.45 107.04 111.381 99.6081 113.648C85.477 117.953 40.7928 119.253 28.3798 113.82C23.9176 111.867 32.2854 109.158 34.9176 108.59C37.6628 107.991 39.2315 108.103 39.2315 108.103C34.2691 104.587 7.15661 115.006 25.4597 117.99C75.3749 126.13 116.45 114.324 103.503 108.45Z" fill="#5382A1"/>
<path d="M51.1942 70.2282C51.1942 70.2282 28.465 75.6575 43.1452 77.6291C49.3437 78.4637 61.7001 78.2749 73.2098 77.305C82.6162 76.507 92.0613 74.8104 92.0613 74.8104C92.0613 74.8104 88.7445 76.2389 86.3449 77.8867C63.2638 83.9916 18.6754 81.1516 31.5118 74.907C42.3676 69.6296 51.1942 70.2282 51.1942 70.2282Z" fill="#5382A1"/>
<path d="M91.9677 93.1489C115.431 80.8872 104.582 69.1038 97.0103 70.6913C95.1544 71.0798 94.3268 71.4164 94.3268 71.4164C94.3268 71.4164 95.0158 70.331 96.3318 69.8611C111.312 64.5647 122.832 85.4822 91.4961 93.7668C91.4961 93.7672 91.8591 93.4407 91.9677 93.1489Z" fill="#5382A1"/>
<path d="M77.8216 1C77.8216 1 90.8158 14.0725 65.4972 34.1744C45.1943 50.2996 60.8675 59.4937 65.4888 69.9984C53.6376 59.2449 44.9405 49.7786 50.7752 40.9682C59.3392 28.0353 83.0645 21.7649 77.8216 1Z" fill="#E76F00"/>
<path d="M53.4998 126.375C76.0214 127.825 110.606 125.571 111.425 114.854C111.425 114.854 109.85 118.916 92.812 122.143C73.5894 125.781 49.881 125.356 35.8193 123.025C35.8196 123.024 38.6979 125.421 53.4998 126.375Z" fill="#5382A1"/>
</svg>

<svg xmlns="http://www.w3.org/2000/svg" width="131" height="128" fill="none"><path fill="#5382A1" d="M48.896 98.265s-4.779 2.795 3.401 3.741c9.91 1.137 14.975.974 25.896-1.105 0 0 2.87 1.811 6.88 3.379-24.48 10.552-55.406-.611-36.177-6.015M45.905 84.496s-5.36 3.99 2.825 4.841c10.587 1.099 18.947 1.188 33.413-1.613 0 0 2 2.04 5.147 3.156-29.6 8.704-62.569.686-41.386-6.384"/><path fill="#E76F00" d="M71.124 61.137c6.032 6.985-1.585 13.27-1.585 13.27s15.317-7.952 8.283-17.91c-6.57-9.286-11.608-13.9 15.667-29.809 0 0-42.813 10.754-22.365 34.45"/><path fill="#5382A1" d="M103.503 108.45s3.537 2.931-3.895 5.198c-14.131 4.305-58.815 5.605-71.228.172-4.462-1.953 3.905-4.662 6.538-5.23 2.745-.599 4.313-.487 4.313-.487-4.962-3.516-32.074 6.903-13.771 9.887 49.915 8.14 90.99-3.666 78.043-9.54M51.194 70.228s-22.729 5.43-8.049 7.401c6.199.835 18.555.646 30.065-.324 9.406-.798 18.851-2.495 18.851-2.495s-3.317 1.429-5.716 3.077c-23.081 6.105-67.67 3.265-54.833-2.98 10.856-5.277 19.682-4.679 19.682-4.679M91.968 93.149c23.463-12.262 12.614-24.045 5.042-22.458-1.856.389-2.683.725-2.683.725s.689-1.085 2.005-1.555c14.98-5.296 26.5 15.621-4.836 23.906 0 0 .363-.326.472-.618"/><path fill="#E76F00" d="M77.822 1s12.994 13.073-12.325 33.174c-20.303 16.126-4.63 25.32-.008 35.824-11.851-10.753-20.549-20.22-14.714-29.03C59.34 28.035 83.065 21.765 77.822 1"/><path fill="#5382A1" d="M53.5 126.375c22.521 1.45 57.106-.804 57.925-11.521 0 0-1.575 4.062-18.613 7.289-19.223 3.638-42.931 3.213-56.993.882 0-.001 2.879 2.396 17.68 3.35"/></svg>
